X:1
T:Ga
L:1/4
M:4/4
I:linebreak $
K:G
V:1 treble nm="Voice" snm="Voice"
V:1
 (D E) G B | (_A B) e/_e/ | d B G D | E2 (E D) |$"A7" ^C E (3G B"D7" !arpeggio!^A | G2 z2 | z |$ %7
"G6" (D E) G B | [AB]2 B (e/(_e/) | ((d) B)) G D |"E7" E- E D |$ ^C E G B | G2 z2 | %13
